X:1
T:Title
%%score { ( 1 4 ) | ( 2 3 ) }
L:1/8
Q:1/4=100
M:4/4
K:Ab
V:1 treble nm="Grand Piano"
V:4 treble 
V:2 bass 
V:3 bass 
V:1
 [CE]2 [CA]>[EB] [Ec]3 [EA] | [B,EB]2 [B,EG]2 [CEA]3 E | F2 F>G [FA]2 [EG][FA] |[M:7/8] B2 c2 B3 | %4
w: L.~H.~Baker * * * *||||
[M:1/8] G |[M:4/4] [A,CE]2 [CA]>[B,DB] [Ec]2 [Ec]2 | [Fd]2 [Fd]2 [DF]3 [DF] | %7
w: |||
 [CE]2 [CA][DB] [Ec]3 B | B4 z4 | c2 c>B [CA]3 [CA] | z2 E2 z4 | [CEA]2 [CEA]>B AGFE | %12
w: |||||
 [A,FA]2 [EGB]>[EGc] [EGB]4 | [CEA]2 [CEA]>[EGB] [EAc]3 [CEc] | .[Gd]2 [DFB]A F3 F | %15
w: |||
[M:9/8] [CE]2 [EA]- [EA]/[Ac]/ [Ae]2- [Ae][Ec][B,FB] |[M:4/4] [CEA]2 [B,EG]>[DEB] [CEA]4 |] %17
w: ||
V:2
 [A,,A,]2 [A,,A,]>[A,,A,] [A,,A,]3 [A,,A,] | E,2 E,2 A,,3 [A,,A,] | %2
 [D,A,D]2 [D,A,D]>[D,B,D] [D,A,]2 [D,B,][D,A,] |[M:7/8] [G,E]2 z z z z2 |[M:1/8] [E,G,E] | %5
[M:4/4] A,,2 A,,>A,, [A,,A,]2 [A,,A,]2 | [D,A,]2 [D,A,]2 [D,A,]3 [D,A,] | %7
 [A,,A,]2 [A,,F,][B,,G,] [C,A,]3 [E,G,E] | E2 z2 z4 | [A,E]2 [A,E]>[E,G,D] [A,,E,]3 [A,,E,] | %10
 [D,A,D]2 [E,B,]2 A,,3 A,, | z4 z2 .D2 | F,2 E,>E, E,4 | A,,2 A,,>E, A,3 A, | %14
 z[K:treble] c[K:bass] z D [D,A,D]3 [D,B,D] | %15
[M:9/8] [A,,A,]2 [C,C]- [C,C]/[E,A,]/ [A,C]2- [A,C][C,A,]D, |[M:4/4] E,2 E,>E, A,,4 |] %17
V:3
 x8 | x8 | x8 |[M:7/8] E,2- [E,A,A]2 [E,G,E]3 |[M:1/8] x |[M:4/4] x8 | x8 | x8 | [E,G,]4 [A,,A,]4 | %9
 x8 | x8 | A,,2 C,>[E,B,E] [A,CE]2 G,-[G,B,] | x8 | x8 | [D,B,]2[K:treble][K:bass] D,2 z4 | %15
[M:9/8] x9 |[M:4/4] x8 |] %17
V:4
 x8 | x8 | x8 |[M:7/8] x7 |[M:1/8] x |[M:4/4] x8 | x8 | x8 | z2 D2 [CA]4 | x8 | %10
 FA z A [A,CE]3 [A,CE] | x8 | x8 | x8 | x8 |[M:9/8] x9 |[M:4/4] x8 |] %17

